src/images/std-icons/std-image.svg

<svg xmlns="http://www.w3.org/2000/svg" width="512" height="512" viewBox="0 0 512 512">
  <title>image</title>
  <path fill="#000" fill-rule="nonzero" d="M405.322453,64.0066133 L106.655787,64.0066133 C83.0916373,64.0066133 63.98912,83.1091307 63.98912,106.67328 L63.98912,405.339947 C63.98912,428.904096 83.0916373,448.006613 106.655787,448.006613 L405.322453,448.006613 C428.886603,448.006613 447.98912,428.904096 447.98912,405.339947 L447.98912,106.67328 C447.98912,83.1091307 428.886603,64.0066133 405.322453,64.0066133 Z M405.322453,405.339947 L106.655787,405.339947 L106.655787,106.67328 L405.322453,106.67328 L405.322453,405.339947 Z"/>
  <path fill="#000" fill-rule="nonzero" d="M174.982613,362.67328 L336.995627,362.67328 C341.294493,362.67328 345.169964,360.083374 346.815065,356.111738 C348.460166,352.140101 347.550955,347.56856 344.51136,344.52864 L306.17152,306.1888 C304.178308,304.195425 301.474835,303.075546 298.655893,303.075546 C295.836951,303.075546 293.133478,304.195425 291.140267,306.1888 L277.322453,320.006613 L242.17152,284.855467 C240.178308,282.862092 237.474835,281.742212 234.655893,281.742212 C231.836951,281.742212 229.133478,282.862092 227.140267,284.855467 L167.466667,344.52864 C164.427045,347.568588 163.517847,352.140181 165.163002,356.111836 C166.808158,360.083492 170.683708,362.67328 174.982613,362.67328 Z"/>
  <circle cx="319.989" cy="192.007" r="42.667" fill="#000" fill-rule="nonzero"/>
</svg>

<svg xmlns="http://www.w3.org/2000/svg" viewBox="0 0 512 512">
  <title>
    image
  </title>
  <path d="M405.32 64H106.66a42.67 42.67 0 0 0-42.67 42.67v298.67a42.67 42.67 0 0 0 42.67 42.67h298.66A42.67 42.67 0 0 0 448 405.34V106.67a42.67 42.67 0 0 0-42.67-42.66zm0 341.34H106.66V106.67h298.66v298.67z"/>
  <path d="M174.98 362.67H337a10.63 10.63 0 0 0 7.51-18.14l-38.34-38.34a10.63 10.63 0 0 0-15.03 0L277.32 320l-35.15-35.15a10.63 10.63 0 0 0-15.03 0l-59.67 59.67a10.63 10.63 0 0 0 7.51 18.14z"/>
  <circle cx="319.99" cy="192.01" r="42.67"/>
</svg>
